icons/ionic-logo.svg

<?xml version="1.0" encoding="UTF-8"?>
<svg width="512px" height="173px" viewBox="0 0 512 173" version="1.1" xmlns="http://www.w3.org/2000/svg" xmlns:xlink="http://www.w3.org/1999/xlink" preserveAspectRatio="xMidYMid">
    <g fill="#3880FF">
        <path d="M86.5106979,0.000800355684 C100.536693,0.000800355684 113.743651,3.27775181 126.131574,9.62528231 L126.131574,9.62528231 L127.769646,10.4443185 L126.336333,11.5704933 C122.855429,14.3347404 120.091182,17.9180238 118.35073,22.0132047 L118.35073,22.0132047 L117.838832,23.1393795 L116.815037,22.6274819 C107.293741,18.1227828 97.1581684,15.7680538 86.6130774,15.7680538 C47.6064787,15.7680538 15.9712058,47.5057062 15.9712058,86.4099254 C15.9712058,125.314145 47.5040992,157.051797 86.5106979,157.051797 C125.517297,157.051797 157.152569,125.314145 157.152569,86.4099254 C157.152569,77.0933887 155.412118,67.981611 151.726455,59.381731 L151.726455,59.381731 L151.214557,58.2555563 L152.340732,57.7436586 C156.538292,56.2079658 160.223955,53.6484777 163.192961,50.3723329 L163.192961,50.3723329 L164.319136,48.9390196 L165.035793,50.5770919 C170.257149,61.9412191 172.816637,74.022003 172.816637,86.2051663 C172.816637,133.811645 134.014797,172.613485 86.4083183,172.613485 C38.8018396,172.613485 0,133.811645 0,86.2051663 C0,38.5986876 38.8018396,-0.203152008 86.5106979,0.000800355684 Z M86.5106979,47.0961881 C108.112777,47.0961881 125.824435,64.7054663 125.926815,86.5123049 C125.926815,108.319144 108.317536,125.928422 86.5106979,125.928422 C64.7038592,125.928422 47.0945811,108.319144 47.0945811,86.5123049 C47.0945811,64.7054663 64.8062388,47.0961881 86.5106979,47.0961881 Z M142.921816,14.5394995 C152.873322,14.5394995 160.940612,22.6067893 160.940612,32.5582957 C160.940612,42.5098021 152.873322,50.5770919 142.921816,50.5770919 C132.970309,50.5770919 124.903019,42.5098021 124.903019,32.5582957 C124.903019,22.6067893 132.970309,14.5394995 142.921816,14.5394995 Z"></path>
        <path d="M480.569486,46.9938086 C487.326535,46.9938086 493.264547,49.2461581 497.769246,51.9080258 C503.809638,55.4913091 508.211958,59.0745924 512,64.9102253 L512,64.9102253 L498.895421,73.8172439 C498.895421,73.8172439 491.728854,62.5554963 480.057588,62.5554963 C466.236353,62.5554963 457.226955,73.2029668 457.226955,86.5123049 C457.226955,99.821643 466.338732,110.469114 480.057588,110.469114 C491.728854,110.469114 498.793041,99.0026068 498.793041,99.1049864 L498.793041,99.1049864 L512,107.909625 C508.211958,113.745258 503.809638,117.226162 497.769246,120.911825 C493.264547,123.573693 487.224155,125.826042 480.569486,125.826042 C457.738852,125.826042 440.334333,108.626282 440.231954,86.4099254 C440.334333,64.1935686 457.738852,46.9938086 480.569486,46.9938086 Z M283.079384,47.0961881 C302.019596,47.0961881 322.495501,60.5079058 322.393504,86.5123049 C322.393504,109.342939 304.886223,125.826042 283.386523,125.826042 C259.634473,125.826042 243.663267,107.500107 243.663267,86.1027868 C243.663267,65.1149844 260.146371,47.0961881 283.079384,47.0961881 Z M235.575285,48.83664 L235.575285,124.08559 L217.35173,124.08559 L217.35173,48.83664 L235.575285,48.83664 Z M432.246351,48.83664 L432.246351,124.08559 L414.022795,124.08559 L414.022795,48.83664 L432.246351,48.83664 Z M371.944811,47.0961881 C394.980204,47.0961881 403.580084,62.9650144 403.887223,82.7242625 L403.887223,82.7242625 L403.887223,123.983211 L385.663667,123.983211 L385.663667,80.8814311 C385.663667,70.8482377 378.804239,62.3507372 370.10198,62.3507372 C361.092581,62.3507372 349.011798,69.6196834 349.011798,78.526702 L349.011798,78.526702 L349.011798,124.08559 L330.788242,124.08559 L330.788242,48.83664 L345.940412,48.83664 L347.066587,56.9246224 L347.153104,56.8430704 C349.471664,54.678802 359.31144,47.0961881 371.944811,47.0961881 Z M283.284143,62.5554963 C270.589082,62.5554963 260.863027,72.6910691 260.863027,86.4099254 C260.863027,100.231161 270.691462,110.366734 283.181764,110.366734 C294.64827,110.366734 305.295741,100.947818 305.295741,86.5123049 C305.295741,71.7696534 294.545891,62.5554963 283.284143,62.5554963 Z"></path>
    </g>
</svg>

<svg xmlns="http://www.w3.org/2000/svg" viewBox="0 0 512 172.613">
  <g fill="#3880ff">
    <path d="M86.51 0c14.027 0 27.234 3.278 39.622 9.625l1.638.82-1.434 1.125c-3.48 2.765-6.245 6.348-7.985 10.443l-.512 1.126-1.024-.512c-9.521-4.504-19.657-6.859-30.202-6.859-39.007 0-70.642 31.738-70.642 70.642 0 38.904 31.533 70.642 70.54 70.642 39.006 0 70.642-31.738 70.642-70.642 0-9.317-1.74-18.428-5.427-27.028l-.511-1.126 1.126-.512c4.197-1.536 7.883-4.096 10.852-7.372l1.126-1.433.717 1.638c5.221 11.364 7.78 23.445 7.78 35.628 0 47.607-38.801 86.408-86.408 86.408C38.802 172.613 0 133.812 0 86.205 0 38.6 38.802-.203 86.51.001zm0 47.096c21.603 0 39.314 17.61 39.417 39.416 0 21.807-17.61 39.416-39.416 39.416-21.807 0-39.416-17.609-39.416-39.416 0-21.807 17.711-39.416 39.416-39.416zm56.412-32.556c9.951 0 18.019 8.067 18.019 18.018 0 9.952-8.068 18.02-18.02 18.02-9.95 0-18.018-8.068-18.018-18.02 0-9.951 8.067-18.018 18.019-18.018zM480.57 46.994c6.757 0 12.695 2.252 17.2 4.914 6.04 3.583 10.442 7.167 14.23 13.002l-13.105 8.907s-7.166-11.262-18.837-11.262c-13.822 0-22.831 10.648-22.831 23.957 0 13.31 9.112 23.957 22.83 23.957 11.672 0 18.736-11.466 18.736-11.364L512 107.91c-3.788 5.835-8.19 9.316-14.23 13.002-4.505 2.662-10.546 4.914-17.2 4.914-22.831 0-40.236-17.2-40.338-39.416.102-22.216 17.507-39.416 40.337-39.416zm-197.49.102c18.94 0 39.416 13.412 39.314 39.416 0 22.83-17.508 39.314-39.007 39.314-23.753 0-39.724-18.326-39.724-39.723 0-20.988 16.483-39.007 39.416-39.007zm-47.505 1.74v75.25h-18.223v-75.25zm196.671 0v75.25h-18.223v-75.25zm-60.301-1.74c23.035 0 31.635 15.869 31.942 35.628v41.26h-18.223V80.88c0-10.033-6.86-18.53-15.562-18.53-9.01 0-21.09 7.269-21.09 16.176v45.559h-18.224v-75.25h15.152l1.127 8.089.086-.082c2.319-2.164 12.158-9.747 24.792-9.747zm-88.66 15.46c-12.696 0-22.422 10.135-22.422 23.854 0 13.821 9.828 23.957 22.319 23.957 11.466 0 22.114-9.42 22.114-23.855 0-14.742-10.75-23.957-22.012-23.957z"/>
  </g>
</svg>
